public/marquee_icons/3.svg

<svg width="81" height="27" viewBox="0 0 81 27" fill="none" xmlns="http://www.w3.org/2000/svg">
<path d="M0 0C3.63981 0.0592902 7.31584 -0.016747 10.956 0.0144118C13.0049 0.0319494 16.0833 -0.0928414 18.0299 0.304841C19.8166 0.672266 21.3805 1.74295 22.3695 3.27599C23.2761 4.66048 23.4416 6.68064 23.1614 8.29134C22.9266 9.64142 21.9127 10.8151 20.7788 11.5543C23.715 13.1474 24.97 14.7904 25.1047 18.2176C25.2978 21.5394 23.0329 25.0224 19.7804 25.9591C17.0487 26.7458 13.5217 26.4178 10.6797 26.4961L10.6872 22.0313C12.3789 22.0576 14.0784 22.0247 15.7708 22.0398C16.1826 22.0435 16.5612 22.0363 16.9692 21.9722C20.0831 21.4831 20.9037 18.2658 19.258 15.8238C19.2025 15.7539 19.1438 15.6866 19.0822 15.622C17.8048 14.3106 15.3892 14.5326 13.6862 14.533L8.43331 14.5313C8.47578 15.5341 8.44932 16.7199 8.44949 17.73L8.44863 23.4348C8.44826 24.2866 8.40059 25.6781 8.45616 26.4894C6.87913 26.4765 4.87555 26.4312 3.32576 26.4974L3.32707 15.4895C3.3274 13.5352 3.37016 11.4328 3.31974 9.4946C6.90276 9.50738 10.4932 9.50439 14.0738 9.50152C15.2897 9.46969 16.7511 9.35867 17.657 8.44857C18.4825 7.66427 18.4311 6.10175 17.5884 5.34727C16.4792 4.35409 14.1892 4.452 12.7691 4.44401C11.5705 4.43852 10.3719 4.43905 9.17321 4.44561C6.19321 4.44893 2.97563 4.38514 0.00742932 4.46429L0 0Z" fill="white" fill-opacity="0.69"/>
<path d="M46.8149 10.792L46.8771 10.7931C46.9676 10.9604 46.9136 13.7366 46.9066 14.2031C46.1653 15.1712 44.8986 16.561 44.0811 17.5091L39.1525 23.2184C39.886 23.1607 41.0516 23.1947 41.8191 23.1949C43.6126 23.2031 45.406 23.1991 47.1994 23.1827C47.1884 24.1294 47.138 25.6182 47.2072 26.5368C46.7465 26.4978 46.1616 26.5164 45.6866 26.5176L43.2104 26.5206L35.0361 26.5203C34.6598 26.516 34.2892 26.529 33.9133 26.5405C33.9072 25.4962 33.914 24.4519 33.9335 23.4078C34.1273 23.1005 34.6091 22.5651 34.8558 22.2751L36.509 20.3295C38.234 18.2978 40.0417 16.0981 41.8073 14.1236C41.2142 14.1728 40.2776 14.1267 39.6485 14.1354C37.941 14.159 36.1815 14.0933 34.4773 14.1526C34.4896 13.0382 34.4895 11.9237 34.4768 10.8093C38.535 10.7519 42.7783 10.9055 46.8149 10.792Z" fill="white" fill-opacity="0.69"/>
<path d="M49.7584 10.8117C50.9334 10.783 52.2284 10.8084 53.4141 10.8086L62.1839 10.7976C62.1732 11.8133 62.2236 13.234 62.1597 14.2129C61.9668 14.4967 61.5204 14.9923 61.2824 15.2691L59.6242 17.1896L54.4155 23.221C55.1596 23.1595 56.3641 23.195 57.1464 23.1952C58.9181 23.2025 60.6898 23.1986 62.4611 23.1837C62.446 24.1087 62.4632 25.4957 62.4489 26.4623C62.4276 26.4899 62.4095 26.5136 62.3944 26.5331C61.6814 26.492 60.7873 26.5194 60.0562 26.5198H55.8796L51.7341 26.5195C50.9281 26.519 49.9734 26.4951 49.1854 26.5422C49.1801 25.5249 49.1633 24.4048 49.2063 23.3952C49.448 23.0356 49.8919 22.5442 50.1839 22.2015L51.8099 20.2943L57.0518 14.1399C54.6931 14.2095 52.1551 14.0881 49.7547 14.149L49.7584 10.8117Z" fill="white" fill-opacity="0.69"/>
<path d="M31.2767 10.7931L31.3057 10.7964C31.3215 10.8152 31.3412 10.8312 31.3531 10.8527C31.456 11.0384 31.2585 24.7845 31.39 26.5222C30.039 26.5132 28.6879 26.5164 27.337 26.5316L27.2389 26.5216C27.1398 26.3866 27.1875 23.0202 27.1874 22.6448L27.1868 15.1728C27.1867 13.7338 27.2053 12.2461 27.1738 10.8102C28.5371 10.7871 29.9061 10.8259 31.2767 10.7931Z" fill="white" fill-opacity="0.69"/>
<path d="M63.8509 17.2607C64.2572 17.1941 64.9461 17.2161 65.3798 17.2163L67.849 17.218L71.0447 17.2122C71.7127 17.211 72.481 17.1865 73.1355 17.2528C72.1067 18.3559 70.989 19.3876 69.9434 20.4759C69.8771 20.5449 69.7964 20.6211 69.7366 20.6931C69.4823 20.7411 67.6548 20.7232 67.2944 20.7236L65.1742 20.7287C64.7732 20.7298 64.2379 20.7487 63.8489 20.6982C63.8251 19.6676 63.8083 18.2844 63.8509 17.2607Z" fill="white" fill-opacity="0.69"/>
<path d="M73.1346 17.2529C73.2804 17.5904 73.1146 25.5273 73.2145 26.5517C72.1968 26.5478 70.6921 26.4974 69.7202 26.5554C69.7177 24.7508 69.6678 22.4697 69.7358 20.6932C69.7955 20.6212 69.8762 20.545 69.9426 20.476C70.9882 19.3877 72.1058 18.356 73.1346 17.2529Z" fill="white" fill-opacity="0.69"/>
<path d="M73.0095 10.3827L73.114 10.383C73.2008 10.5026 73.1717 11.512 73.1709 11.7369C73.1672 13.2376 73.1705 14.7378 73.1766 16.2384L69.7859 16.2499L69.7454 16.2122C69.6942 16.0182 69.7241 14.7772 69.722 14.5062C69.7122 13.1406 69.7454 11.7548 69.7036 10.3892C70.7758 10.4119 71.9357 10.4003 73.0095 10.3827Z" fill="white" fill-opacity="0.69"/>
<path d="M74.8884 17.2626C76.6171 17.2707 78.3458 17.2651 80.0746 17.2457C80.0635 18.2836 80.1159 19.7016 80.061 20.6886L79.4729 20.6864C77.7516 20.7406 75.9241 20.6389 74.1934 20.7006C74.211 19.5758 74.1958 18.4143 74.2028 17.2838L74.8884 17.2626Z" fill="white" fill-opacity="0.69"/>
<path d="M29.254 5.15259C29.9072 5.80534 30.5535 6.48038 31.2248 7.11249C30.9907 7.34845 29.3899 9.05506 29.2295 9.06493L29.2132 9.0519C28.8517 8.72409 27.5548 7.45484 27.313 7.12838C27.3708 6.95256 29.0116 5.35684 29.254 5.15259Z" fill="white" fill-opacity="0.69"/>
<path d="M27.313 7.12843C27.5249 7.09328 28.948 7.11949 29.2474 7.12158C29.2533 7.60429 29.2886 8.62528 29.2132 9.05195C28.8517 8.72414 27.5548 7.45488 27.313 7.12843Z" fill="white" fill-opacity="0.69"/>
<path d="M29.2471 7.1216C29.8981 7.12054 30.5757 7.12898 31.2245 7.11255C30.9905 7.34851 29.3897 9.05512 29.2292 9.06499L29.2129 9.05196C29.2884 8.6253 29.253 7.6043 29.2471 7.1216Z" fill="white" fill-opacity="0.69"/>
</svg>

<svg xmlns="http://www.w3.org/2000/svg" width="81" height="27" fill="none"><path fill="#fff" fill-opacity=".69" d="M0 0c3.64.06 7.316-.017 10.956.014 2.049.018 5.127-.107 7.074.29a6.8 6.8 0 0 1 4.34 2.972c.906 1.384 1.072 3.405.791 5.015-.234 1.35-1.248 2.524-2.382 3.263 2.936 1.593 4.191 3.236 4.326 6.664.193 3.321-2.072 6.804-5.325 7.741-2.731.787-6.258.459-9.1.537l.007-4.465c1.692.027 3.391-.006 5.084.009.412.004.79-.004 1.198-.068 3.114-.489 3.935-3.706 2.289-6.148a3 3 0 0 0-.176-.202c-1.277-1.311-3.693-1.09-5.396-1.089l-5.253-.002c.043 1.003.016 2.189.016 3.199v5.705c0 .852-.048 2.243.007 3.054-1.577-.012-3.58-.058-5.13.008l.001-11.007c0-1.955.043-4.057-.007-5.995 3.583.012 7.173.01 10.754.007 1.216-.032 2.677-.143 3.583-1.053.826-.785.774-2.347-.069-3.102-1.109-.993-3.399-.895-4.819-.903a358 358 0 0 0-3.596.002c-2.98.003-6.197-.06-9.166.018zM46.815 10.792l.062.001c.09.167.037 2.944.03 3.41-.742.968-2.008 2.358-2.826 3.306l-4.928 5.71c.733-.058 1.899-.024 2.666-.024q2.69.012 5.38-.012c-.01.946-.061 2.435.008 3.354-.46-.04-1.045-.02-1.52-.02l-2.477.004h-8.174c-.376-.005-.747.008-1.123.02q-.009-1.568.02-3.133c.194-.308.676-.843.923-1.133l1.653-1.945c1.725-2.032 3.533-4.232 5.298-6.206-.593.049-1.53.003-2.159.011-1.707.024-3.467-.042-5.17.018a149 149 0 0 0-.001-3.344c4.058-.057 8.301.097 12.338-.017M49.758 10.812c1.175-.029 2.47-.004 3.656-.003l8.77-.011c-.01 1.015.04 2.436-.024 3.415-.193.284-.64.78-.878 1.056l-1.658 1.92-5.209 6.032c.745-.061 1.95-.026 2.731-.026q2.658.012 5.315-.011c-.015.925.002 2.312-.012 3.278l-.055.071c-.713-.041-1.607-.014-2.338-.013h-8.322c-.806-.001-1.76-.025-2.549.022-.005-1.017-.022-2.137.021-3.147.242-.36.686-.85.978-1.194l1.626-1.907 5.242-6.154c-2.359.07-4.897-.052-7.297.009zM31.277 10.793l.029.003c.015.02.035.035.047.057.103.185-.095 13.932.037 15.67a226 226 0 0 0-4.053.009l-.098-.01c-.1-.135-.052-3.502-.052-3.877v-7.472c0-1.44.018-2.927-.013-4.363 1.363-.023 2.732.016 4.103-.017M63.85 17.26c.407-.066 1.096-.044 1.53-.044l2.469.002 3.196-.006c.668-.001 1.436-.026 2.09.04-1.028 1.104-2.146 2.136-3.192 3.224-.066.069-.147.145-.206.217-.255.048-2.082.03-2.443.03l-2.12.006c-.4 0-.936.02-1.325-.03-.024-1.031-.04-2.415.002-3.438"/><path fill="#fff" fill-opacity=".69" d="M73.135 17.253c.145.337-.02 8.274.08 9.299-1.018-.004-2.523-.055-3.495.003-.002-1.804-.052-4.085.016-5.862.06-.072.14-.148.207-.217 1.045-1.088 2.163-2.12 3.192-3.223M73.01 10.383h.104c.087.12.058 1.129.057 1.354q-.005 2.25.006 4.501l-3.391.012-.04-.038c-.052-.194-.022-1.435-.024-1.706-.01-1.365.023-2.751-.018-4.117 1.072.023 2.232.011 3.306-.006M74.888 17.263q2.594.012 5.187-.017c-.011 1.038.04 2.456-.014 3.443l-.588-.003c-1.721.055-3.549-.047-5.28.015.018-1.125.003-2.287.01-3.417zM29.254 5.153c.653.652 1.3 1.327 1.97 1.96-.233.235-1.834 1.942-1.994 1.952l-.017-.013c-.361-.328-1.658-1.597-1.9-1.924.058-.175 1.699-1.771 1.941-1.975"/><path fill="#fff" fill-opacity=".69" d="M27.313 7.128c.212-.035 1.635-.009 1.934-.006.006.482.042 1.503-.034 1.93-.361-.328-1.658-1.597-1.9-1.924"/><path fill="#fff" fill-opacity=".69" d="M29.247 7.122c.651-.001 1.329.007 1.977-.01-.233.237-1.834 1.943-1.995 1.953l-.016-.013c.075-.427.04-1.448.034-1.93"/></svg>
